X:1
T:Holiness unto the Lord
T:Holiness unto the Lord
T:Lelila Naylor Morris
T:Lelila Naylor Morris, 1900
T:Public Domain Courtesy of the Cyber Hymnal™
T:Public Domain Courtesy of the Cyber Hymnal™
C:Lelila Naylor Morris
Z:Public Domain
Z:Courtesy of the Cyber Hymnal™
%%score ( 1 2 ) 3
L:1/8
Q:1/4=108
M:4/4
K:Ab
V:1 treble 
V:2 treble 
V:3 bass 
V:1
 [CA]2 [DA]>[DA] [CA][DF] [CE]2 | [EA]2 [EG][EG] [EA]4 | [DF]2 [FA][Fd] [Ec]2 [CA][Ec] | %3
w: 1.~“Called un- to ho- li- ness,”|Church of our God,|Pur- chase of Je- sus, re-|
w: 2.~“Called un- to ho- li- ness,”|child- ren of light,|Walk- ing with Je- sus in|
w: 3.~“Called u- nto ho- li- ness,”|praise His dear name!|This bless- èd se- cret to|
w: 4.~“Called un- to ho- li- ness,”|bride of the Lamb,|Wait- ing the Bride- groom’s re-|
 [=DB]2 [DF][Dc] [EB]4 | [Ec]2 [=Ec][Ec] [Fc]2 [FA][Fc] | [Ge]2 [Ge][Ge] [Ae]4 | %6
w: deemed by His blood;|Called from the world and its|i- dols to flee,|
w: gar- ments of white;|Rai- ment un- sull- ied, nor|tar- nished with sin;|
w: faith now made plain:|Not our own right- eous- ness,|but Christ with- in,|
w: turn- ing a- gain!|Lift up your heads, for the|day draw- eth near|
 [EA]2 [EG][DF] [CE]2 [EA][FB] | [Ec]2 [Ec][DB] [CA]4 || %8
w: Called from the bond- age of|sin to be free.|
w: God’s Ho- ly Spir- it a-|bid- ing with- in.|
w: Liv- ing, and reign- ing, and|sav- ing from sin.|
w: When in His beau- ty the|King shall ap- pear.|
"^Refrain" (3[CE][CE][CE] (3[DE][DE][DE] E2 [EA]>[FB] | [Ec]2 [Ec]>[DB] [CA]4 | %10
w: ||
w: “Ho- li- ness un- to the Lord” is our|watch- word and song.|
w: ||
w: ||
 (3[DF][DF][DF] (3[EF][EF][EF] [DF]2 [FB]>[Fc] | [Fd]2 [Ed]>[Ec] [EB]4 | [Ec]3 [Ec] [Ad]3 [Ad] | %13
w: |||
w: “Ho- li- ness un- to the Lord” as we’re|march- ing a- long.|Sing it, shout it,|
w: |||
w: |||
 [Ae]3 [Ae] [Af]4 | (3[FA][FA][FA] (3[FB][FB][FB] [Ec]2 (3[EA][EB][Ec] | [EB]4 [EA]4 |] %16
w: |||
w: loud and long,|“Ho- li- ness un- to the Lord,” now and for-|ev- er.|
w: |||
w: |||
V:2
 x8 | x8 | x8 | x8 | x8 | x8 | x8 | x8 || x4 E2 x2 | x8 | x8 | x8 | x8 | x8 | x8 | x8 |] %16
V:3
 [A,,E,]2 [A,,F,]>[A,,_F,] [A,,E,][A,,A,] [A,,A,]2 | [E,C]2 [E,B,][E,D] [A,,C]4 | %2
w: ~ ~ ~ ~ ~ ~|~ ~ ~ ~|
 [D,A,]2 [D,A,][D,A,] [A,,A,]2 [A,,A,][A,,A,] | [B,,A,]2 [B,,A,][B,,A,] [E,G,]4 | %4
w: ~ ~ ~ ~ ~ ~|~ ~ ~ ~|
 [A,,A,]2 [C,G,][C,B,] [F,A,]2 [F,C][F,A,] | [E,B,]2 [E,B,][E,D] [A,C]4 | %6
w: ~ ~ ~ ~ ~ ~|~ ~ ~ ~|
 [C,A,]2 [D,A,][D,A,] [E,A,]2 [C,A,][D,A,] | [E,A,]2 [E,G,][E,G,] [A,,E,]4 || %8
w: ~ ~ ~ ~ ~ ~|~ ~ ~ ~|
 (3[A,,A,][A,,A,][A,,A,] (3[B,,G,][B,,G,][B,,G,] [C,A,]2 [C,A,]>[D,A,] | %9
w: ~ ~ ~ ~ ~ ~ ~ ~ ~|
 [E,A,]2 [E,G,]>[E,G,] [A,,A,]4 | %10
w: ~ ~ ~ ~|
 (3[D,A,][D,A,][D,A,] (3[C,=A,][C,A,][C,A,] [B,,B,]2 [D,B,]>[F,A,] | B,2 [G,B,]>A, [E,G,]4 | %12
w: ~ ~ ~ ~ ~ ~ ~ ~ ~|~ ~ ~ ~|
 (3A,A,A, (3[_G,A,][G,A,][G,A,] [F,A,]3 [F,A,] | (3[C,A,][C,A,][C,A,] (3[C,E][C,E][C,E] [D,D]4 | %14
w: “Ho- li- ness un- to the Lord,” sing|“Ho- li- ness un- to the Lord.”|
 (3[D,D][D,D][D,D] (3[D,A,][D,A,][D,A,] [E,A,]2 (3[E,C][E,D][E,E] | [E,D]4 [A,,C]4 |] %16
w: ||

